logo/autoprefixer.svg

<?xml version="1.0" encoding="UTF-8" standalone="no"?>
<svg width="256px" height="193px" viewBox="0 0 256 193" version="1.1" xmlns="http://www.w3.org/2000/svg" xmlns:xlink="http://www.w3.org/1999/xlink" preserveAspectRatio="xMidYMid">
	<g fill="#DD3835">
		<path d="M62.2594273,192.231662 L93.1619166,192.231662 L102.705332,159.511379 L150.422412,159.511379 L159.965828,192.231662 L192.68611,192.231662 L128.154442,0 L62.2594273,192.231662 L62.2594273,192.231662 Z M128.154442,83.6185008 L144.514583,136.334512 L111.7943,136.334512 L128.154442,83.6185008 L128.154442,83.6185008 Z M255.854434,154.512447 L252.673296,141.333444 L185.414936,134.516719 L194.049456,157.693586 L255.854434,154.512447 L255.854434,154.512447 Z M70.439498,136.334512 L3.18113862,143.151238 L0,156.330241 L62.2594273,159.511379 L70.439498,136.334512 L70.439498,136.334512 Z"></path>
	</g>
</svg>

<svg viewBox="0 0 256 193" xmlns="http://www.w3.org/2000/svg"><path fill="#DD3835" d="M62.25 192.23h30.9l9.54-32.73h47.71l9.54 32.72h32.72L128.12-.02l-65.9 192.23v0Zm65.89-108.62l16.36 52.71h-32.73l16.36-52.72v0Zm127.69 70.89l-3.19-13.18 -67.26-6.82 8.63 23.17 61.8-3.19v0ZM70.41 136.32l-67.26 6.81 -3.19 13.17 62.25 3.18 8.18-23.18v0Z"/></svg>
